!!! OTL: Berkowitz265
!!! Chapter: 1
!!! Section: II
!!! Page: 62
!!! Mode: 
!!! Encoder: DJB
**kern
*staff1
*I"Piano
=1-
*clefG2
*k[f#c#g#]
*A:
*M3/4
4g#/
4dd\
4dd\
=2
8cc#\L
8b\J
2a/
=3
4dd\
4g#/
4g#/
=4
8a/L
8b/J
2cc#\
=5
4g#/
4dd\
4b\
=6
8cc#\L
8b\J
2a/
=7
4b\
4a/
4f#/
=8
2e/
4ee\
=9
8dd\L
8cc#\J
8b/L
8a/J
8g#/L
8e/J
=10
4a/
4d#/
4e/
=11
!!linebreak:original
4f#/
4dd\
4dd\
=12
2dd\
4b\
=13
4cc#\
4b\
4a/
=14
4g#/
4f#/
4e/
=15
4f#/
4b\
4g#/
=16
2a/
4r
==
*-
